tn/sound-on-outline.svg

<svg viewBox="0 0 15 15" fill="none" xmlns="http://www.w3.org/2000/svg" height="1em" width="1em">
  <path d="M3.5 10.4941L3.75712 10.0653L3.63841 9.99413H3.5V10.4941ZM3.5 4.49804V4.99804H3.63841L3.75712 4.92686L3.5 4.49804ZM8.5 1.5H9C9 1.31989 8.90313 1.1537 8.74641 1.06494C8.58969 0.976173 8.39735 0.978558 8.24288 1.07118L8.5 1.5ZM8.5 13.4922L8.24288 13.921C8.39735 14.0136 8.58969 14.016 8.74641 13.9272C8.90313 13.8385 9 13.6723 9 13.4922H8.5ZM13.8534 4.14438L13.4998 3.79094L12.7929 4.49827L13.1466 4.85171L13.8534 4.14438ZM13.1466 10.1405L12.7929 10.4939L13.4998 11.2012L13.8534 10.8478L13.1466 10.1405ZM3.5 9.99413H1.5V10.9941H3.5V9.99413ZM1.5 9.99413C1.22351 9.99413 1 9.77065 1 9.49478H0C0 10.3242 0.672491 10.9941 1.5 10.9941V9.99413ZM1 9.49478V5.49739H0V9.49478H1ZM1 5.49739C1 5.22153 1.22351 4.99804 1.5 4.99804V3.99804C0.672491 3.99804 0 4.66798 0 5.49739H1ZM1.5 4.99804H3.5V3.99804H1.5V4.99804ZM3.75712 4.92686L8.75712 1.92882L8.24288 1.07118L3.24288 4.06922L3.75712 4.92686ZM8 1.5V13.4922H9V1.5H8ZM8.75712 13.0634L3.75712 10.0653L3.24288 10.923L8.24288 13.921L8.75712 13.0634ZM13.5 4.49804C13.1466 4.85171 13.1464 4.85154 13.1462 4.85138C13.1462 4.85133 13.146 4.85117 13.1459 4.85107C13.1457 4.85087 13.1455 4.85068 13.1454 4.85051C13.145 4.85016 13.1447 4.84988 13.1445 4.84965C13.1441 4.8492 13.1439 4.84898 13.1439 4.84899C13.1439 4.84901 13.1448 4.84996 13.1466 4.85184C13.1501 4.85561 13.157 4.86308 13.1668 4.87426C13.1864 4.89663 13.2175 4.93374 13.2563 4.98555C13.3342 5.08924 13.4427 5.2512 13.5528 5.47128C13.7722 5.90979 14 6.58318 14 7.49609H15C15 6.4103 14.7278 5.58467 14.4472 5.02383C14.3073 4.74423 14.1658 4.53144 14.0562 4.3853C14.0013 4.31219 13.9543 4.25561 13.9192 4.21551C13.9016 4.19546 13.887 4.17951 13.8759 4.16767C13.8703 4.16174 13.8656 4.15684 13.8619 4.15296C13.86 4.15102 13.8583 4.14933 13.8569 4.1479C13.8562 4.14719 13.8556 4.14653 13.855 4.14595C13.8547 4.14565 13.8544 4.14538 13.8542 4.14511C13.854 4.14498 13.8539 4.1448 13.8538 4.14473C13.8536 4.14455 13.8534 4.14438 13.5 4.49804ZM14 7.49609C14 8.40899 13.7722 9.08238 13.5528 9.5209C13.4427 9.74097 13.3342 9.90294 13.2563 10.0066C13.2175 10.0584 13.1864 10.0955 13.1668 10.1179C13.157 10.1291 13.1501 10.1366 13.1466 10.1403C13.1448 10.1422 13.1439 10.1432 13.1439 10.1432C13.1439 10.1432 13.1441 10.143 13.1445 10.1425C13.1447 10.1423 13.145 10.142 13.1454 10.1417C13.1455 10.1415 13.1457 10.1413 13.1459 10.1411C13.146 10.141 13.1462 10.1408 13.1462 10.1408C13.1464 10.1406 13.1466 10.1405 13.5 10.4941C13.8534 10.8478 13.8536 10.8476 13.8538 10.8474C13.8539 10.8474 13.854 10.8472 13.8542 10.8471C13.8544 10.8468 13.8547 10.8465 13.855 10.8462C13.8556 10.8456 13.8562 10.845 13.8569 10.8443C13.8583 10.8428 13.86 10.8412 13.8619 10.8392C13.8656 10.8353 13.8703 10.8304 13.8759 10.8245C13.887 10.8127 13.9016 10.7967 13.9192 10.7767C13.9543 10.7366 14.0013 10.68 14.0562 10.6069C14.1658 10.4607 14.3073 10.2479 14.4472 9.96834C14.7278 9.40751 15 8.58188 15 7.49609H14Z" fill="black"/>
</svg>

<svg viewBox="0 0 15 15" fill="none" xmlns="http://www.w3.org/2000/svg" height="1em" width="1em">
  <path d="m3.5 10.494.257-.429-.119-.07H3.5v.5Zm0-5.996v.5h.138l.12-.071-.258-.429Zm5-2.998H9a.5.5 0 0 0-.757-.429L8.5 1.5Zm0 11.992-.257.429A.5.5 0 0 0 9 13.492h-.5Zm5.353-9.348-.353-.353-.707.707.354.354.706-.708Zm-.706 5.996-.354.354.707.707.353-.353-.706-.708ZM3.5 9.994h-2v1h2v-1Zm-2 0a.5.5 0 0 1-.5-.5H0c0 .83.672 1.5 1.5 1.5v-1Zm-.5-.5V5.498H0v3.998h1Zm0-3.997a.5.5 0 0 1 .5-.499v-1a1.5 1.5 0 0 0-1.5 1.5h1Zm.5-.499h2v-1h-2v1Zm2.257-.071 5-2.998-.514-.858-5 2.998.514.858ZM8 1.5v11.992h1V1.5H8Zm.757 11.563-5-2.998-.514.858 5 2.998.514-.858ZM13.5 4.498c-.353.354-.354.354-.354.353a.01.01 0 0 1-.002-.002l.003.003.02.022a3.186 3.186 0 0 1 .386.597c.22.439.447 1.112.447 2.025h1c0-1.086-.272-1.911-.553-2.472a4.198 4.198 0 0 0-.39-.639 2.932 2.932 0 0 0-.181-.217l-.014-.015-.005-.005-.002-.002-.001-.001-.354.353Zm.5 2.998c0 .913-.228 1.586-.447 2.025a3.184 3.184 0 0 1-.386.597.83.83 0 0 1-.02.022l-.003.003.001-.001.001-.001.354.353c.353.354.354.354.354.353h.001l.002-.003.005-.005.014-.014.043-.048c.035-.04.082-.097.137-.17.11-.146.251-.36.391-.639.28-.56.553-1.386.553-2.472h-1Z" fill="#000"/>
</svg>
